X:13
T:Heltor
M:4/4
L:1/8
R:Reel
C:Gris Sanderson
Q:450
N:Heltor is a rock on Dartmoor. On the very top of it is a 
N:hollow that is usually filled with water. The tor is like an island ringed 
N:with bracken, fenced off from the surrounding fields. You have to 
N:approach it along a narrow footpath, and the view is beautiful. 
N:This tune was written after a day spent up there. It incorporates a 
N:traditional waulking song at the end and is on the Waulk album 
N:House Music.
K:Am
A,EED EA,CD|EAAG A2AB|cABG AGED|EAGE EDCE|
DG,G,A, B,G,A,C|DG,DE FDEC|DGGA BGAc|dGGA G2AB|
cABG Aeed|eaag aged|cAGA EADA|EAAB cecA|
G2GA cGAc|GAcG AcGE|DGGA BGAc|dGde d2AB|
cABG A2AB|cABG AedB|cABG AGED|EAAB cedB|
cABG A2AB|cABG AedB|cABG AGED|EAGE EDCE|
|:D3CD4|G3EG2ED|D2DE D2D2|C2C2D4|
EG3CC3|DE3DC3|C2CA,A,2C2|DC3E4:||
